X:1
T:Chilton Foliat, 10.10.10.10
T:Chilton Foliat, 10.10.10.10
T:George Clement Martin, 1897
T:Public Domain Courtesy of the Cyber Hymnal™
C:George Clement Martin, 1897
Z:Public Domain
Z:Courtesy of the Cyber Hymnal™
%%score ( 1 2 ) ( 3 4 )
L:1/8
Q:1/4=110
M:4/4
K:A
V:1 treble 
V:2 treble 
V:3 bass 
V:4 bass 
V:1
 E2 | A2 E2 C3 D | E2 E2 [EF]2 [EG]2 | [EA]6 [EB]2 | [Ec]2 [EB]2 [EG]2 E2 | G3 z A [^DG]2 [DF]2 | %6
 E6 [B,E]2 | [A,A]2 [B,E]2 C2 [A,D]2 | [B,E]2 [EG]2 [EA]2 [EB]2 | [Ec]6 [CA]2 | %10
 [DB]2 [=Gc]2 [Fd]2 [DA]2 | [Ec]3 [Ad] [Ac]2 [GB]2 | A6 |] %13
V:2
 E2 | A2 E2 C3 D | E2 E2 x4 | x8 | x6 E2 | E2 E2 x5 | E6 x2 | x4 C2 x2 | x8 | x8 | x8 | x8 | A6 |] %13
V:3
 E,2 | A,2 E,2 C,3 D, | E,2 [D,G,]2 [C,A,]2 [B,,D]2 | [A,,C]6 [E,G,]2 | %4
 A,2 [G,B,]2 [E,B,]2 [C,^A,]2 | B,2 z [B,,B,]2 [B,,A,]2 x2 | [E,G,]6 [D,G,]2 | %7
 [C,E,]2 [G,,E,]2 [A,,E,]2 F,2 | [E,G,]2 [D,B,]2 [C,A,]2 [E,G,]2 | A,6 [=G,A,]2 | %10
 [F,A,]2 [E,A,]2 [D,A,]2 [F,A,]2 | [E,A,]3 [E,F] [E,E]2 [E,D]2 | [A,,C]6 |] %13
V:4
 E,2 | A,2 E,2 C,3 D, | E,2 x6 | x8 | ^A,2 x6 | B,,3 C2 B,, x3 | x8 | x6 F,2 | x8 | A,6 x2 | x8 | %11
 x8 | x6 |] %13

